public/img/clients/sportslive24.svg

<svg xmlns="http://www.w3.org/2000/svg" focusable="false" role="img" viewBox="0 0 200 100" fill="currentColor">
  <path fill-rule="evenodd" d="M14.37 58.42c-1.098 0-2.186-.098-3.233-.293l-.444-.083.68-3.837h8.71c.283 0 .4-.096.44-.127.066-.053.146-.14.183-.35l.232-1.305h-4.493c-1.684 0-2.872-.406-3.53-1.207-.66-.8-.84-2.06-.542-3.745l.117-.66c.3-1.683.93-2.942 1.872-3.743.943-.8 2.275-1.207 3.96-1.207h8.267l-.745 4.192h-7.39c-.568 0-.793.192-.894.76l-.077.44c-.1.566.057.758.624.758h3.954c1.58 0 2.708.388 3.35 1.154.645.77.83 1.95.554 3.51l-.192 1.08c-.277 1.56-.883 2.74-1.8 3.51-.915.766-2.18 1.154-3.76 1.154H14.37v-.001zm12.17-.065l2.928-16.492h9.784c1.684 0 2.87.406 3.53 1.207.66.8.84 2.06.542 3.744l-.39 2.197c-.3 1.685-.93 2.945-1.872 3.745-.943.8-2.275 1.207-3.96 1.207H32.39l-.78 4.393h-5.07v-.001zm10.43-8.585c.567 0 .792-.19.893-.76l.39-2.196c.1-.567-.057-.76-.624-.76h-3.835l-.66 3.716h3.836zm10.505 8.805c-1.684 0-2.872-.406-3.53-1.207-.66-.8-.84-2.06-.542-3.745l1.248-7.028c.3-1.684.93-2.944 1.874-3.745.943-.8 2.275-1.207 3.96-1.207h5.49c1.683 0 2.87.406 3.53 1.207.658.8.84 2.06.542 3.745l-1.25 7.028c-.298 1.684-.928 2.944-1.87 3.745-.944.8-2.276 1.207-3.96 1.207h-5.492zm3.14-12.74c-.566 0-.792.192-.893.76l-1.248 7.028c-.1.568.056.76.624.76h3.734c.568 0 .793-.192.894-.76l1.25-7.028c.1-.568-.058-.76-.626-.76h-3.735zm18.492 12.52L67.4 53.743h-2.185l-.82 4.612h-5.07l2.93-16.492h9.784c1.682 0 2.87.406 3.53 1.207.657.8.84 2.06.54 3.744l-.35 1.977c-.237 1.332-.642 2.352-1.238 3.12a4.295 4.295 0 01-1.824 1.367l1.983 5.078h-5.573v-.001zm.687-8.805c.568 0 .794-.19.895-.76l.35-1.976c.1-.567-.057-.76-.625-.76H66.58l-.62 3.496h3.834zm9.439 8.805l2.184-12.3h-4.612l.745-4.192h14.296l-.745 4.192h-4.61l-2.186 12.3h-5.072zm14.242.065c-1.098 0-2.185-.098-3.232-.293l-.445-.083.682-3.837h8.708c.283 0 .402-.096.44-.127.066-.053.147-.14.184-.35l.232-1.305H95.55c-1.684 0-2.872-.406-3.53-1.207-.658-.8-.84-2.06-.542-3.745l.117-.66c.3-1.682.93-2.942 1.873-3.743.943-.8 2.275-1.207 3.96-1.207h8.267l-.745 4.192h-7.39c-.567 0-.793.192-.894.76l-.078.44c-.1.566.057.758.625.758h3.954c1.58 0 2.706.388 3.35 1.154.644.77.83 1.95.553 3.51l-.192 1.08c-.277 1.56-.883 2.74-1.8 3.51-.916.766-2.18 1.154-3.76 1.154h-5.843v-.001zm13.555-.065l2.93-16.492h5.07l-2.185 12.3h8.017l-.745 4.192H107.03zm13.86 0l.746-4.192h1.977l1.44-8.108h-1.977l.745-4.192h9.026l-.745 4.192h-1.976l-1.44 8.108h1.977l-.744 4.192h-9.029zm15.5 0l-3.315-16.492h5.49l1.627 9.617 5.045-9.617h5.49l-9.174 16.492h-5.164.001zm11.86 0l2.93-16.492h13.31l-.746 4.192h-8.237l-.328 1.848h6.478l-.744 4.192h-6.48l-.367 2.068h8.237l-.745 4.192h-13.31.002zm29.336-19.875c-6.474 0-11.722 5.25-11.722 11.722 0 1.316.226 2.575.626 3.756l.123-.58 7.695-4.817.197-.926c.158-.74-.134-1.11-.875-1.11h-5.19l.552-2.596h5.93c1.298 0 2.177.294 2.64.88.46.587.555 1.53.28 2.826l-.08.37a3.815 3.815 0 01-.395 1.076c-.18.32-.397.618-.653.89-.255.27-.544.525-.865.76-.323.234-.67.47-1.04.704l-4.596 2.872h6.21l-.553 2.594h-7.896c2.118 3.035 5.63 5.024 9.612 5.024 6.473 0 11.72-5.248 11.72-11.722 0-6.473-5.247-11.72-11.72-11.72v-.003zm9.634 15.826l-.552 2.594h-3.335l.55-2.594h-6.856l.552-2.595 6.1-7.782h3.707l-6.102 7.783h3.15l.592-2.778h3.335l-.59 2.78h1.297l-.553 2.594h-1.297l.002-.002z" clip-rule="evenodd"/>
</svg>

<svg width="200" height="100" viewBox="0 0 200 100" fill="none" xmlns="http://www.w3.org/2000/svg">
<path fill-rule="evenodd" clip-rule="evenodd" d="M14.37 58.42C13.272 58.42 12.184 58.322 11.137 58.127L10.693 58.044L11.373 54.207H20.083C20.366 54.207 20.483 54.111 20.523 54.08C20.589 54.027 20.669 53.94 20.706 53.73L20.938 52.425H16.445C14.761 52.425 13.573 52.019 12.915 51.218C12.255 50.418 12.075 49.158 12.373 47.473L12.49 46.813C12.79 45.13 13.42 43.871 14.362 43.07C15.305 42.27 16.637 41.863 18.322 41.863H26.589L25.844 46.055H18.454C17.886 46.055 17.661 46.247 17.56 46.815L17.483 47.255C17.383 47.821 17.54 48.013 18.107 48.013H22.061C23.641 48.013 24.769 48.401 25.411 49.167C26.056 49.937 26.241 51.117 25.965 52.677L25.773 53.757C25.496 55.317 24.89 56.497 23.973 57.267C23.058 58.033 21.793 58.421 20.213 58.421H14.37V58.42ZM26.54 58.355L29.468 41.863H39.252C40.936 41.863 42.122 42.269 42.782 43.07C43.442 43.87 43.622 45.13 43.324 46.814L42.934 49.011C42.634 50.696 42.004 51.956 41.062 52.756C40.119 53.556 38.787 53.963 37.102 53.963H32.39L31.61 58.356H26.54V58.355ZM36.97 49.77C37.537 49.77 37.762 49.58 37.863 49.01L38.253 46.814C38.353 46.247 38.196 46.054 37.629 46.054H33.794L33.134 49.77H36.968H36.97ZM47.475 58.575C45.791 58.575 44.603 58.169 43.945 57.368C43.285 56.568 43.105 55.308 43.403 53.623L44.651 46.595C44.951 44.911 45.581 43.651 46.525 42.85C47.468 42.05 48.8 41.643 50.485 41.643H55.975C57.658 41.643 58.845 42.049 59.505 42.85C60.163 43.65 60.345 44.91 60.047 46.595L58.797 53.623C58.499 55.307 57.869 56.567 56.927 57.368C55.983 58.168 54.651 58.575 52.967 58.575H47.477H47.475ZM50.615 45.835C50.049 45.835 49.823 46.027 49.722 46.595L48.474 53.623C48.374 54.191 48.53 54.383 49.098 54.383H52.832C53.4 54.383 53.625 54.191 53.726 53.623L54.976 46.595C55.076 46.027 54.918 45.835 54.35 45.835H50.616H50.615ZM69.107 58.355L67.4 53.743H65.215L64.395 58.355H59.325L62.255 41.863H72.039C73.721 41.863 74.909 42.269 75.569 43.07C76.226 43.87 76.409 45.13 76.109 46.814L75.759 48.791C75.522 50.123 75.117 51.143 74.521 51.911C74.046 52.524 73.435 52.981 72.697 53.278L74.68 58.356H69.107V58.355ZM69.794 49.55C70.362 49.55 70.588 49.36 70.689 48.79L71.039 46.814C71.139 46.247 70.982 46.054 70.414 46.054H66.58L65.96 49.55H69.794ZM79.233 58.355L81.417 46.055H76.805L77.55 41.863H91.846L91.101 46.055H86.491L84.305 58.355H79.235H79.233ZM93.475 58.42C92.377 58.42 91.29 58.322 90.243 58.127L89.798 58.044L90.48 54.207H99.188C99.471 54.207 99.59 54.111 99.628 54.08C99.694 54.027 99.775 53.94 99.812 53.73L100.044 52.425H95.55C93.866 52.425 92.678 52.019 92.02 51.218C91.362 50.418 91.18 49.158 91.478 47.473L91.595 46.813C91.895 45.131 92.525 43.871 93.468 43.07C94.411 42.27 95.743 41.863 97.428 41.863H105.695L104.95 46.055H97.56C96.993 46.055 96.767 46.247 96.666 46.815L96.588 47.255C96.488 47.821 96.645 48.013 97.213 48.013H101.167C102.747 48.013 103.873 48.401 104.517 49.167C105.161 49.937 105.347 51.117 105.07 52.677L104.878 53.757C104.601 55.317 103.995 56.497 103.078 57.267C102.162 58.033 100.898 58.421 99.318 58.421H93.475V58.42ZM107.03 58.355L109.96 41.863H115.03L112.845 54.163H120.862L120.117 58.355H107.03ZM120.89 58.355L121.636 54.163H123.613L125.053 46.055H123.076L123.821 41.863H132.847L132.102 46.055H130.126L128.686 54.163H130.663L129.919 58.355H120.894H120.89ZM136.39 58.355L133.075 41.863H138.565L140.192 51.48L145.237 41.863H150.727L141.553 58.355H136.389H136.39ZM148.25 58.355L151.18 41.863H164.49L163.744 46.055H155.507L155.179 47.903H161.657L160.913 52.095H154.433L154.066 54.163H162.303L161.558 58.355H148.248H148.25ZM177.586 38.48C171.112 38.48 165.864 43.73 165.864 50.202C165.864 51.518 166.09 52.777 166.49 53.958L166.613 53.378L174.308 48.561L174.505 47.635C174.663 46.895 174.371 46.525 173.63 46.525H168.44L168.992 43.929H174.922C176.22 43.929 177.099 44.223 177.562 44.809C178.022 45.396 178.117 46.339 177.842 47.635L177.762 48.005C177.678 48.402 177.546 48.76 177.367 49.081C177.187 49.401 176.97 49.699 176.714 49.971C176.459 50.241 176.17 50.496 175.849 50.731C175.526 50.965 175.179 51.201 174.809 51.435L170.213 54.307H176.423L175.87 56.901H167.974C170.092 59.936 173.604 61.925 177.586 61.925C184.059 61.925 189.306 56.677 189.306 50.203C189.306 43.73 184.059 38.483 177.586 38.483V38.48ZM187.22 54.306L186.668 56.9H183.333L183.883 54.306H177.027L177.579 51.711L183.679 43.929H187.386L181.284 51.712H184.434L185.026 48.934H188.361L187.771 51.714H189.068L188.515 54.308H187.218L187.22 54.306Z" fill="black"/>
</svg>
